static/dist/images/icons/circular-graph.svg

<svg xmlns="http://www.w3.org/2000/svg" viewBox="0 0 20 20"><path d="M17.584 9.372h2a9.554 9.554 0 0 0-.668-2.984L17.16 7.402c.224.623.371 1.283.424 1.97zm-3.483-8.077a9.492 9.492 0 0 0-3.086-.87v2.021a7.548 7.548 0 0 1 2.084.585l1.002-1.736zm2.141 4.327l1.741-1.005a9.643 9.643 0 0 0-2.172-2.285l-1.006 1.742a7.625 7.625 0 0 1 1.437 1.548zm-6.228 11.949a7.6 7.6 0 0 1-7.6-7.6c0-3.858 2.877-7.036 6.601-7.526V.424C4.182.924.414 5.007.414 9.971a9.6 9.6 0 0 0 9.601 9.601c4.824 0 8.807-3.563 9.486-8.2H17.48c-.658 3.527-3.748 6.199-7.466 6.199z"/></svg>

<?xml version="1.0" encoding="utf-8"?>
<!-- Generator: Adobe Illustrator 18.1.0, SVG Export Plug-In . SVG Version: 6.00 Build 0)  -->
<!DOCTYPE svg PUBLIC "-//W3C//DTD SVG 1.1//EN" "http://www.w3.org/Graphics/SVG/1.1/DTD/svg11.dtd">
<svg version="1.1" id="Circular_graph" xmlns="http://www.w3.org/2000/svg" xmlns:xlink="http://www.w3.org/1999/xlink" x="0px"
	 y="0px" viewBox="0 0 20 20" enable-background="new 0 0 20 20" xml:space="preserve">
<path d="M17.584,9.372h2c-0.065-1.049-0.293-2.053-0.668-2.984L17.16,7.402C17.384,8.025,17.531,8.685,17.584,9.372z M14.101,1.295
	c-0.955-0.451-1.99-0.757-3.086-0.87v2.021c0.733,0.097,1.433,0.295,2.084,0.585L14.101,1.295z M16.242,5.622l1.741-1.005
	c-0.591-0.878-1.33-1.645-2.172-2.285l-1.006,1.742C15.354,4.52,15.836,5.042,16.242,5.622z M10.014,17.571
	c-4.197,0-7.6-3.402-7.6-7.6c0-3.858,2.877-7.036,6.601-7.526V0.424c-4.833,0.5-8.601,4.583-8.601,9.547
	c0,5.303,4.298,9.601,9.601,9.601c4.824,0,8.807-3.563,9.486-8.2H17.48C16.822,14.899,13.732,17.571,10.014,17.571z"/>
</svg>
